apps/client/src/icons/sidebar.svg

<svg height="40" viewBox="0 0 256 256" width="40" xmlns="http://www.w3.org/2000/svg"><path d="m216 40h-176a16 16 0 0 0 -16 16v144a16 16 0 0 0 16 16h176a16 16 0 0 0 16-16v-144a16 16 0 0 0 -16-16zm-176 16h40v144h-40zm176 144h-120v-144h120z" fill="#b8c2cc"/></svg>

<?xml version="1.0" encoding="UTF-8" standalone="no"?>
<svg
   width="40"
   height="40"
   viewBox="0 0 256 256"
   version="1.1"
   id="svg136"
   sodipodi:docname="sidebar.svg"
   inkscape:version="1.2.1 (9c6d41e4, 2022-07-14)"
   xmlns:inkscape="http://www.inkscape.org/namespaces/inkscape"
   xmlns:sodipodi="http://sodipodi.sourceforge.net/DTD/sodipodi-0.dtd"
   xmlns="http://www.w3.org/2000/svg"
   xmlns:svg="http://www.w3.org/2000/svg">
  <defs
     id="defs140" />
  <sodipodi:namedview
     id="namedview138"
     pagecolor="#ffffff"
     bordercolor="#000000"
     borderopacity="0.25"
     inkscape:showpageshadow="2"
     inkscape:pageopacity="0.0"
     inkscape:pagecheckerboard="0"
     inkscape:deskcolor="#d1d1d1"
     showgrid="false"
     inkscape:zoom="5.7979544"
     inkscape:cx="-19.058446"
     inkscape:cy="28.975737"
     inkscape:window-width="1309"
     inkscape:window-height="456"
     inkscape:window-x="0"
     inkscape:window-y="25"
     inkscape:window-maximized="0"
     inkscape:current-layer="svg136" />
  <path
     d="M216,40H40A16,16,0,0,0,24,56V200a16,16,0,0,0,16,16H216a16,16,0,0,0,16-16V56A16,16,0,0,0,216,40ZM40,56H80V200H40ZM216,200H96V56H216V200Z"
     id="path134"
     style="fill:#b8c2cc" />
</svg>
